X:5320
Q: 1/4=120
T: Csütörtökön este
M:4/4
L:1/4
K: Bb
d> e d<c | G2 G z |
d g a g | d2 d z |
d g a<g | d g f z | 
g f/e/ d<c | GAB |
c | d>e d<c | G2 G z | 


